symbols/web/map/materialsymbolsoutlined/map_wght600gradN25fill1_48px.svg

<svg xmlns="http://www.w3.org/2000/svg" height="48" width="48"><path d="m30.6 42.5-13.1-4.65-8.55 3.45q-1.2.6-2.3-.1-1.1-.7-1.1-2.1V11.6q0-.85.475-1.55.475-.7 1.325-1L17.5 5.5l13.1 4.55 8.45-3.45q1.2-.5 2.325.175Q42.5 7.45 42.5 8.8v27.9q0 .8-.525 1.375t-1.225.825Zm-1.65-4.65v-24.5l-9.85-3.3v24.5Z"/></svg>

<svg xmlns="http://www.w3.org/2000/svg" height="48" width="48"><path d="M30.6 42.5 17.5 37.85 8.95 41.3Q7.75 41.9 6.65 41.2Q5.55 40.5 5.55 39.1V11.6Q5.55 10.75 6.025 10.05Q6.5 9.35 7.35 9.05L17.5 5.5L30.6 10.05L39.05 6.6Q40.25 6.1 41.375 6.775Q42.5 7.45 42.5 8.8V36.7Q42.5 37.5 41.975 38.075Q41.45 38.65 40.75 38.9ZM28.95 37.85V13.35L19.1 10.05V34.55Z"/></svg>
